icon-themes/breeze_svg/cmd/sc_togglebreakpoint.svg

<svg viewBox="0 0 16 16" xmlns="http://www.w3.org/2000/svg"><path d="m2 2v3h8v-3zm4 4c-1.06609 0-1.53125.3482772-1.53125 1.25v1.21875c0 .5568736-.0050025 1.21875-.59375 1.21875h-.3125v.625h.3125c.58889 0 .59375.661876.59375 1.21875v1.21875c0 .901648.46516 1.25 1.53125 1.25v-.59375c-.7107199 0-.71875-.227427-.71875-1.09375v-1.03125c0-.415499-.15096-1.024901-.75-1.28125.59904-.2563494.75-.865751.75-1.28125v-1.03125c0-.8663228.0080003-1.09375.71875-1.09375zm1 0v1h1v-1zm2 0v.59375c.71073 0 .71875.2274272.71875 1.09375v1.03125c0 .415499.11971 1.0249006.71875 1.28125-.59904.256349-.71875.865751-.71875 1.28125v1.03125c0 .866323-.0080028 1.09375-.71875 1.09375v.59375c1.066099 0 1.53124-.348352 1.53125-1.25v-1.21875c0-.556874.046297-1.21875.625-1.21875h.28125v-.625h-.28125c-.578741 0-.62501-.6618764-.625-1.21875v-1.21875c0-.9017228-.465151-1.25-1.53125-1.25zm-2 2v5h1v-5z" fill="#4d4d4d"/><path d="m11 2 1.5 3 1.5-3z" fill="#f47750"/></svg>

<svg xmlns="http://www.w3.org/2000/svg" viewBox="0 0 16 16">
 <path 
     style="fill:#4d4d4d" 
     d="M 2 2 L 2 5 L 10 5 L 10 2 L 2 2 z M 6 6 C 4.93391 6 4.46875 6.3482772 4.46875 7.25 L 4.46875 8.46875 C 4.46875 9.0256236 4.4637475 9.6875 3.875 9.6875 L 3.5625 9.6875 L 3.5625 10.3125 L 3.875 10.3125 C 4.46389 10.3125 4.46875 10.974376 4.46875 11.53125 L 4.46875 12.75 C 4.46875 13.651648 4.93391 14 6 14 L 6 13.40625 C 5.2892801 13.40625 5.28125 13.178823 5.28125 12.3125 L 5.28125 11.28125 C 5.28125 10.865751 5.13029 10.256349 4.53125 10 C 5.13029 9.7436506 5.28125 9.134249 5.28125 8.71875 L 5.28125 7.6875 C 5.28125 6.8211772 5.2892503 6.59375 6 6.59375 L 6 6 z M 7 6 L 7 7 L 8 7 L 8 6 L 7 6 z M 9 6 L 9 6.59375 C 9.71073 6.59375 9.71875 6.8211772 9.71875 7.6875 L 9.71875 8.71875 C 9.71875 9.134249 9.83846 9.7436506 10.4375 10 C 9.83846 10.256349 9.71875 10.865751 9.71875 11.28125 L 9.71875 12.3125 C 9.71875 13.178823 9.7107472 13.40625 9 13.40625 L 9 14 C 10.066099 14 10.53124 13.651648 10.53125 12.75 L 10.53125 11.53125 C 10.53125 10.974376 10.577547 10.3125 11.15625 10.3125 L 11.4375 10.3125 L 11.4375 9.6875 L 11.15625 9.6875 C 10.577509 9.6875 10.53124 9.0256236 10.53125 8.46875 L 10.53125 7.25 C 10.53125 6.3482772 10.066099 6 9 6 z M 7 8 L 7 13 L 8 13 L 8 8 L 7 8 z "
     />
 <path 
     style="fill:#f47750" 
     d="M 11 2 L 12.5 5 L 14 2 L 11 2 z "
     />
 </svg>
